mobile/24/svg/lock-24.svg

<svg width="24" height="24" viewBox="0 0 24 24" fill="none" xmlns="http://www.w3.org/2000/svg">
<path fill-rule="evenodd" clip-rule="evenodd" d="M7 11V7C7 4.23875 9.23875 2 12 2C14.7612 2 17 4.23875 17 7V11C18.3802 11 19.5 12.1198 19.5 13.5V19.5C19.5 20.8802 18.3802 22 17 22H7C5.61975 22 4.5 20.8802 4.5 19.5V13.5C4.5 12.1198 5.61975 11 7 11ZM8.75 7C8.75 5.20525 10.2052 3.75 12 3.75C13.7948 3.75 15.25 5.20525 15.25 7V11H8.75V7ZM6.25 13.5C6.25 13.0862 6.58625 12.75 7 12.75H17C17.4138 12.75 17.75 13.0862 17.75 13.5V19.5C17.75 19.9137 17.4138 20.25 17 20.25H7C6.58625 20.25 6.25 19.9137 6.25 19.5V13.5Z" fill="black"/>
</svg>

<svg width="24" height="24" fill="none" xmlns="http://www.w3.org/2000/svg"><path fill-rule="evenodd" clip-rule="evenodd" d="M7 11V7a5 5 0 0 1 10 0v4a2.5 2.5 0 0 1 2.5 2.5v6A2.5 2.5 0 0 1 17 22H7a2.5 2.5 0 0 1-2.5-2.5v-6A2.5 2.5 0 0 1 7 11zm1.75-4a3.25 3.25 0 0 1 6.5 0v4h-6.5V7zm-2.5 6.5a.75.75 0 0 1 .75-.75h10a.75.75 0 0 1 .75.75v6a.75.75 0 0 1-.75.75H7a.75.75 0 0 1-.75-.75v-6z" fill="#000"/></svg>
